X:1
T:Dissi a l'amata mia
T:Cornelius Verdonck
T:Source : Bicinia---Antwerp---Pierre Phalèse Jr---1609. Editor : André Vierendeels (10/05/17).
T:Notes : Original clefs :  C1,C3 Editorial accidentals above the staff
T:Dissi a l'amata mia
T:©
T:©
T:©
T:©
C:Cornelius Verdonck
Z:©
%%score [ 1 2 ]
L:1/8
Q:1/4=120
M:4/4
K:F
V:1 treble nm="Soprano" snm="S"
V:2 treble-8 nm="Tenor" snm="T"
V:1
|: z8 | F8 | G4 z2 A2- | A2 G2 B2 A2 | G4 c3 B | A2 d3 c BA | BA AG/F/ G4 | F4 A4 | A2 G2 F2 E2 | %9
w: |Dis-|si a|_ l'a- ma- ta|mia lu- ci-|da stel- * * *||la, che|piu d'ogn' al- tra|
 D2 C2 D4 | E4 A4 | G4 F4 | E2 A2 G4 | A4 z2 A2 | B4 c4 | d8 | A4 B4- | B4 A2 c2- | cBAG F2 f2 | %19
w: lu- * *|ce, et|al mio|cor ad- du-|ce, et|al mio|cor|ad- du-|* ce, fiam-|* * * * * me|
 edcB AF B2- | B A2 G A3 G/F/ | ED E2 D2 F2- | FGAB c2 C2 | DEFG A2 D2 | z2 B2 A2 B2- | %25
w: stra- * * * * * li|_ et ca- te- * *|* * * ne, fiam-|* * * * * me|stra- * * * * li|et ca- te-|
 BA/G/ FG A3 G/F/ | EF G3 F/E/ DE | F2 F2 E2 F2- | FE/D/ EF GA B2 | B2 AG A4 | z2 F2 A4 | %31
w: ||* ne, ca- te-||* * * ne,|ch'ogn' hor|
 d2 c4 B2 | A4 G2 c2 | A4 z2 E2 | F2 G2 A2 G2- | G^F FE/F/ G4 | z2 c2 A4 | z2 F2 D2 A,2 | %38
w: mi dan- no|pe- ne, ch'ogn'|hor mi|dan- no pe- *|* * * * * ne,|ch'ogn' hor,|ch'ogn' hor mi|
 B,2 C2 D4 | E8 |: A8- | A4 z2 AB | c4 z2 cd | e2 d2 ^c4 | d4 d4 | z2 d2 c2 B2 | A4 z2 Bc | %47
w: dan- no pe-|ne,|deh|_ mo- ri-|ro, mo- ri-|ro cor mi-|o, si,|si mo- ri-|rai mo- ri-|
 d4 z2 DE | F4 z2 FG | A4 z2 B2 | B2 A2 B2 Bc | d4 z2 c2 | c2 =B2 c4 | A6 B2- | B2 c2 F2 G2- | %55
w: ro, mo- ri-|ro, mo- ri-|ro, si|mo- ri- rai, mo- ri-|ro, si|mo- ri- rai,|ma non|_ per mio de-|
 GFED E2 F2- | F2 ED E4 | F8 :| %58
w: * * * * * si-||o.|
V:2
|: c8 | d4 z2 f2- | f2 e2 f2 d2 | c4 d3 c | =B2 c4 A2 | f3 e d2 g2- | gf f3 e/d/ e2 | f4 z2 f2 | %8
w: Dis-|si a|_ l'a- ma- ta|mia lu- ci-|da stel- la,|lu- ci- da stel-||la, che|
 f2 e2 d2 c2 | =B2 c4 B2 | c4 z2 A2 | B2 c2 d2 A2 | c3 d B4 | A2 d2 e2 f2 | g2 d2 _e4 | %15
w: piu d'ogn' al- tra|lu- * *|ce, et|al mio cor ad-|du- * *|ce, et al mio|cor a- du-|
 d2 B3 c de | f2 F2 GABc | dG g3 f2 e | f3 e dc d2 | c4 z2 d2 | c2 B2 A2 d2 | ^c4 d4 | z2 f2 e4 | %23
w: ce, fiam- * * *|* me stra- * * *|* * * li et|ca- * * * te-|ne, et|al mio cor ad-|du- ce,|ad- du-|
 f2 d3 c BA | G2 g2 fedc | Bc d3 c2 =B | c3 B/A/ GA B2- | BA/G/ FG A3 G/F/ | G8 | F8 | f2 d4 A2 | %31
w: ce fiam- * * *|* me stra- * * *|* * * li et|ca- * * * * *||te-|ne,|ch'ogn' hor mi|
 B2 c2 d3 c | de f3 e/d/ e2 | f2 F2 A4 | d2 c4 B2 | A4 G2 c2 | A4 z2 f2 | d2 A2 B2 c2 | %38
w: dan- no pe- *||ne, mi dan-|no pe- *|* ne, ch'ogn'|hor, ch'ogn'|hor mi dan- no|
 d2 c3 =B BA/B/ | c8 |: f8 | z2 de f4 | z2 fg a4- | a2 f2 e4 | d4 z4 | g4 z2 g2 | g2 ^f2 g4 | %47
w: pe- * * * * *|ne|deh,|mo- ri- ro|mo- ri- ro|_ cor mi-|o,|si, si|mo- ri- rai|
 z2 GA B4 | z2 Bc d4 | z2 de f2 d2 | c4 B4- | B4 f4 | e2 d2 c4- | c4 c4 | d6 _e2 | B2 c3 B A2 | %56
w: mo- ri- ro,|mo- ri- ro|mo- ri- ro cor|mi- o,|_ si|mo- ri- rai|_ ma|non per|mio de- * *|
 G8 | F8 :| %58
w: si-|o.|

